Newaita-dark/apps/256/gnome-nibbles.svg

<?xml version="1.0" encoding="UTF-8"?>
<svg xmlns="http://www.w3.org/2000/svg" xmlns:xlink="http://www.w3.org/1999/xlink" width="256pt" height="256pt" viewBox="0 0 256 256" version="1.1">
<defs>
<linearGradient id="linear0" gradientUnits="userSpaceOnUse" x1="254" y1="233.5" x2="254" y2="254.666672" gradientTransform="matrix(0.500048,0,0,0.500048,-0.0000305205,107.510281)">
<stop offset="0" style="stop-color:rgb(0%,0%,0%);stop-opacity:0.27451;"/>
<stop offset="1" style="stop-color:rgb(0%,0%,0%);stop-opacity:0;"/>
</linearGradient>
<radialGradient id="radial0" gradientUnits="userSpaceOnUse" cx="450.908936" cy="189.579361" fx="450.908936" fy="189.579361" r="21.166656" gradientTransform="matrix(0.00000139336,-0.62506,-1.125108,-0.000000812309,417.045185,508.762661)">
<stop offset="0" style="stop-color:rgb(0%,0%,0%);stop-opacity:0.313725;"/>
<stop offset="0.222222" style="stop-color:rgb(0%,0%,0%);stop-opacity:0.27451;"/>
<stop offset="1" style="stop-color:rgb(0%,0%,0%);stop-opacity:0;"/>
</radialGradient>
<radialGradient id="radial1" gradientUnits="userSpaceOnUse" cx="450.908936" cy="189.579361" fx="450.908936" fy="189.579361" r="21.166656" gradientTransform="matrix(-0.00000139336,0.62506,1.125108,0.000000812309,-163.020907,-60.219831)">
<stop offset="0" style="stop-color:rgb(0%,0%,0%);stop-opacity:0.313725;"/>
<stop offset="0.222222" style="stop-color:rgb(0%,0%,0%);stop-opacity:0.27451;"/>
<stop offset="1" style="stop-color:rgb(0%,0%,0%);stop-opacity:0;"/>
</radialGradient>
<radialGradient id="radial2" gradientUnits="userSpaceOnUse" cx="450.908936" cy="189.579361" fx="450.908936" fy="189.579361" r="21.166656" gradientTransform="matrix(-0.00000139336,-0.62506,1.125108,-0.000000812309,-163.020907,508.762661)">
<stop offset="0" style="stop-color:rgb(0%,0%,0%);stop-opacity:0.313725;"/>
<stop offset="0.222222" style="stop-color:rgb(0%,0%,0%);stop-opacity:0.27451;"/>
<stop offset="1" style="stop-color:rgb(0%,0%,0%);stop-opacity:0;"/>
</radialGradient>
<radialGradient id="radial3" gradientUnits="userSpaceOnUse" cx="450.908936" cy="189.579361" fx="450.908936" fy="189.579361" r="21.166656" gradientTransform="matrix(0.00000139336,0.62506,-1.125108,0.000000812309,417.04517,-60.219835)">
<stop offset="0" style="stop-color:rgb(0%,0%,0%);stop-opacity:0.313725;"/>
<stop offset="0.222222" style="stop-color:rgb(0%,0%,0%);stop-opacity:0.27451;"/>
<stop offset="1" style="stop-color:rgb(0%,0%,0%);stop-opacity:0;"/>
</radialGradient>
<linearGradient id="linear1" gradientUnits="userSpaceOnUse" x1="169.333328" y1="233.5" x2="169.333328" y2="-168.666656" gradientTransform="matrix(0.500048,0,0,0.500048,0,107.510266)">
<stop offset="0" style="stop-color:rgb(25.882353%,25.882353%,25.882353%);stop-opacity:1;"/>
<stop offset="1" style="stop-color:rgb(38.039216%,38.039216%,38.039216%);stop-opacity:1;"/>
</linearGradient>
<linearGradient id="linear2" gradientUnits="userSpaceOnUse" x1="580" y1="1295.118164" x2="580" y2="1155.118164" >
<stop offset="0" style="stop-color:rgb(93.72549%,32.54902%,31.372549%);stop-opacity:1;"/>
<stop offset="1" style="stop-color:rgb(89.803922%,45.098039%,45.098039%);stop-opacity:1;"/>
</linearGradient>
</defs>
<g id="surface1">
<path style=" stroke:none;fill-rule:nonzero;fill:url(#linear0);" d="M 47.628906 223.488281 L 206.394531 223.488281 L 206.394531 235.246094 L 47.628906 235.246094 Z M 47.628906 223.488281 "/>
<path style=" stroke:none;fill-rule:nonzero;fill:url(#radial0);" d="M 206.394531 224.269531 L 227.5625 224.269531 L 227.5625 213.6875 L 206.394531 213.6875 Z M 206.394531 224.269531 "/>
<path style=" stroke:none;fill-rule:nonzero;fill:url(#radial1);" d="M 47.628906 224.269531 L 26.460938 224.269531 L 26.460938 234.855469 L 47.628906 234.855469 Z M 47.628906 224.269531 "/>
<path style=" stroke:none;fill-rule:nonzero;fill:url(#radial2);" d="M 47.628906 224.269531 L 26.460938 224.269531 L 26.460938 213.6875 L 47.628906 213.6875 Z M 47.628906 224.269531 "/>
<path style=" stroke:none;fill-rule:nonzero;fill:url(#radial3);" d="M 206.394531 224.269531 L 227.5625 224.269531 L 227.5625 234.855469 L 206.394531 234.855469 Z M 206.394531 224.269531 "/>
<path style=" stroke:none;fill-rule:nonzero;fill:url(#linear1);" d="M 37.046875 23.167969 L 216.980469 23.167969 C 222.824219 23.167969 227.5625 27.90625 227.5625 33.753906 L 227.5625 213.6875 C 227.5625 219.53125 222.824219 224.269531 216.980469 224.269531 L 37.046875 224.269531 C 31.199219 224.269531 26.460938 219.53125 26.460938 213.6875 L 26.460938 33.753906 C 26.460938 27.90625 31.199219 23.167969 37.046875 23.167969 Z M 37.046875 23.167969 "/>
<path style=" stroke:none;fill-rule:nonzero;fill:rgb(90.196079%,90.196079%,90.196079%);fill-opacity:0.392157;" d="M 37.046875 23.167969 C 31.179688 23.167969 26.460938 27.890625 26.460938 33.753906 L 26.460938 35.078125 C 26.460938 29.210938 31.179688 24.480469 37.046875 24.492188 L 216.980469 24.492188 C 222.84375 24.480469 227.5625 29.210938 227.5625 35.078125 L 227.5625 33.753906 C 227.5625 27.890625 222.84375 23.167969 216.980469 23.167969 Z M 37.046875 23.167969 "/>
<path style=" stroke:none;fill-rule:nonzero;fill:rgb(0%,0%,0%);fill-opacity:0.196078;" d="M 37.046875 224.269531 C 31.179688 224.269531 26.460938 219.550781 26.460938 213.6875 L 26.460938 212.363281 C 26.460938 218.226562 31.179688 222.949219 37.046875 222.949219 L 216.980469 222.949219 C 222.84375 222.949219 227.5625 218.226562 227.5625 212.363281 L 227.5625 213.6875 C 227.5625 219.550781 222.84375 224.269531 216.980469 224.269531 Z M 37.046875 224.269531 "/>
<path style="fill:none;stroke-width:3;stroke-linecap:round;stroke-linejoin:miter;stroke:rgb(12.941177%,12.941177%,12.941177%);stroke-opacity:1;stroke-miterlimit:4;" d="M 74.086675 -168.668487 L 433.9195 -168.668487 C 445.605884 -168.668487 455.081542 -159.192829 455.081542 -147.498634 L 455.081542 212.334192 C 455.081542 224.020576 445.605884 233.496233 433.9195 233.496233 L 74.086675 233.496233 C 62.392479 233.496233 52.916822 224.020576 52.916822 212.334192 L 52.916822 -147.498634 C 52.916822 -159.192829 62.392479 -168.668487 74.086675 -168.668487 Z M 74.086675 -168.668487 " transform="matrix(0.500048,0,0,0.500048,0,107.510266)"/>
<path style="fill-rule:nonzero;fill:rgb(50.588235%,78.039216%,51.764706%);fill-opacity:1;stroke-width:3;stroke-linecap:square;stroke-linejoin:bevel;stroke:rgb(20%,20%,20%);stroke-opacity:1;stroke-miterlimit:4;" d="M 153.461908 -78.708328 C 147.59528 -78.708328 142.876981 -73.990028 142.876981 -68.123401 L 142.876981 32.413873 C 142.876981 38.2805 147.59528 42.9988 153.461908 42.9988 C 159.320723 42.9988 164.039023 38.2805 164.039023 32.413873 L 164.039023 -57.538474 L 243.414255 -57.538474 L 243.414255 117.085475 C 243.414255 122.94429 247.554485 127.66259 252.686807 127.66259 L 354.544268 127.66259 C 360.403083 127.66259 365.121383 122.94429 365.121383 117.085475 C 365.121383 111.218848 360.403083 106.500548 354.544268 106.500548 L 264.584108 106.500548 L 264.584108 -68.123401 C 264.584108 -73.990028 260.451691 -78.708328 255.311556 -78.708328 Z M 153.461908 -78.708328 " transform="matrix(0.500048,0,0,0.500048,0,107.510266)"/>
<path style="fill-rule:nonzero;fill:url(#linear2);stroke-width:11.338583;stroke-linecap:square;stroke-linejoin:bevel;stroke:rgb(20%,20%,20%);stroke-opacity:1;stroke-miterlimit:4;" d="M 540.007515 1155.125972 C 517.834435 1155.125972 500.001491 1172.958916 500.001491 1195.102472 L 500.001491 1255.12627 C 500.001491 1277.269826 517.834435 1295.10277 540.007515 1295.10277 L 619.990039 1295.10277 C 642.16312 1295.10277 659.996063 1277.269826 659.996063 1255.12627 L 659.996063 1195.102472 C 659.996063 1172.958916 642.16312 1155.125972 619.990039 1155.125972 L 600.001789 1155.125972 L 600.001789 1175.114222 C 600.001789 1186.186 591.085318 1195.102472 580.01354 1195.102472 C 568.912237 1195.102472 559.995765 1186.186 559.995765 1175.114222 L 559.995765 1155.125972 Z M 540.007515 1155.125972 " transform="matrix(0.132304,0,0,0.132304,0,0)"/>
<path style="fill-rule:nonzero;fill:rgb(40.784314%,62.352943%,21.960784%);fill-opacity:0.996078;stroke-width:3;stroke-linecap:square;stroke-linejoin:bevel;stroke:rgb(20%,20%,20%);stroke-opacity:1;stroke-miterlimit:4;" d="M 153.461908 77.393953 C 157.844302 77.393953 161.39865 80.948301 161.39865 85.330695 L 161.39865 93.267437 C 161.39865 97.657643 157.844302 101.211991 153.461908 101.211991 C 149.071702 101.211991 145.517354 97.657643 145.517354 93.267437 L 145.517354 85.330695 C 145.517354 80.948301 149.071702 77.393953 153.461908 77.393953 Z M 153.461908 77.393953 " transform="matrix(0.500048,0,0,0.500048,0,107.510266)"/>
</g>
</svg>

<svg xmlns="http://www.w3.org/2000/svg" width="256pt" height="256pt" viewBox="0 0 256 256"><defs><linearGradient id="a" gradientUnits="userSpaceOnUse" x1="254" y1="233.5" x2="254" y2="254.667" gradientTransform="matrix(.50005 0 0 .50005 0 107.51)"><stop offset="0" stop-opacity=".275"/><stop offset="1" stop-opacity="0"/></linearGradient><radialGradient id="b" gradientUnits="userSpaceOnUse" cx="450.909" cy="189.579" fx="450.909" fy="189.579" r="21.167" gradientTransform="matrix(0 -.62506 -1.1251 0 417.045 508.763)"><stop offset="0" stop-opacity=".314"/><stop offset=".222" stop-opacity=".275"/><stop offset="1" stop-opacity="0"/></radialGradient><radialGradient id="c" gradientUnits="userSpaceOnUse" cx="450.909" cy="189.579" fx="450.909" fy="189.579" r="21.167" gradientTransform="matrix(0 .62506 1.1251 0 -163.02 -60.22)"><stop offset="0" stop-opacity=".314"/><stop offset=".222" stop-opacity=".275"/><stop offset="1" stop-opacity="0"/></radialGradient><radialGradient id="d" gradientUnits="userSpaceOnUse" cx="450.909" cy="189.579" fx="450.909" fy="189.579" r="21.167" gradientTransform="matrix(0 -.62506 1.1251 0 -163.02 508.763)"><stop offset="0" stop-opacity=".314"/><stop offset=".222" stop-opacity=".275"/><stop offset="1" stop-opacity="0"/></radialGradient><radialGradient id="e" gradientUnits="userSpaceOnUse" cx="450.909" cy="189.579" fx="450.909" fy="189.579" r="21.167" gradientTransform="matrix(0 .62506 -1.1251 0 417.045 -60.22)"><stop offset="0" stop-opacity=".314"/><stop offset=".222" stop-opacity=".275"/><stop offset="1" stop-opacity="0"/></radialGradient><linearGradient id="f" gradientUnits="userSpaceOnUse" x1="169.333" y1="233.5" x2="169.333" y2="-168.667" gradientTransform="matrix(.50005 0 0 .50005 0 107.51)"><stop offset="0" stop-color="#424242"/><stop offset="1" stop-color="#616161"/></linearGradient><linearGradient id="g" gradientUnits="userSpaceOnUse" x1="580" y1="1295.118" x2="580" y2="1155.118"><stop offset="0" stop-color="#ef5350"/><stop offset="1" stop-color="#e57373"/></linearGradient></defs><path d="M47.629 223.488h158.766v11.758H47.629zm0 0" fill="url(#a)"/><path d="M206.395 224.27h21.167v-10.583h-21.167zm0 0" fill="url(#b)"/><path d="M47.629 224.27H26.46v10.585h21.168zm0 0" fill="url(#c)"/><path d="M47.629 224.27H26.46v-10.583h21.168zm0 0" fill="url(#d)"/><path d="M206.395 224.27h21.167v10.585h-21.167zm0 0" fill="url(#e)"/><path d="M37.047 23.168H216.98c5.844 0 10.583 4.738 10.583 10.586v179.934c0 5.843-4.739 10.582-10.583 10.582H37.047c-5.848 0-10.586-4.739-10.586-10.583V33.755c0-5.848 4.738-10.586 10.586-10.586zm0 0" fill="url(#f)"/><path d="M37.047 23.168A10.562 10.562 0 0 0 26.46 33.754v1.324c0-5.867 4.719-10.598 10.586-10.586H216.98c5.864-.012 10.583 4.719 10.583 10.586v-1.324a10.561 10.561 0 0 0-10.583-10.586zm0 0" fill="#e6e6e6" fill-opacity=".392"/><path d="M37.047 224.27a10.559 10.559 0 0 1-10.586-10.583v-1.324a10.562 10.562 0 0 0 10.586 10.586H216.98a10.561 10.561 0 0 0 10.583-10.586v1.325a10.558 10.558 0 0 1-10.583 10.582zm0 0" fill-opacity=".196"/><path d="M37.047 23.168H216.98c5.843 0 10.582 4.738 10.582 10.586v179.934c0 5.843-4.739 10.582-10.582 10.582H37.047c-5.848 0-10.586-4.739-10.586-10.582V33.754c0-5.848 4.738-10.586 10.586-10.586zm0 0" fill="none" stroke-width="1.50015" stroke-linecap="round" stroke="#212121"/><path d="M76.738 68.152a5.28 5.28 0 0 0-5.293 5.293v50.274a5.28 5.28 0 0 0 5.293 5.293c2.93 0 5.29-2.36 5.29-5.293v-44.98h39.69v87.32c0 2.93 2.071 5.289 4.638 5.289h50.933c2.93 0 5.29-2.36 5.29-5.29a5.279 5.279 0 0 0-5.29-5.292h-44.984v-87.32c0-2.934-2.067-5.294-4.637-5.294zm0 0" fill="#81c784" stroke-width="1.50015" stroke-linecap="square" stroke-linejoin="bevel" stroke="#333"/><path d="M540.008 1155.126c-22.174 0-40.007 17.833-40.007 39.976v60.024c0 22.144 17.833 39.977 40.007 39.977h79.982c22.173 0 40.006-17.833 40.006-39.977v-60.024c0-22.143-17.833-39.976-40.006-39.976h-19.988v19.988a19.947 19.947 0 0 1-19.988 19.988c-11.102 0-20.018-8.916-20.018-19.988v-19.988zm0 0" transform="scale(.1323)" fill="url(#g)" stroke-width="11.339" stroke-linecap="square" stroke-linejoin="bevel" stroke="#333"/><path d="M76.738 146.211a3.97 3.97 0 0 1 3.97 3.969v3.968a3.97 3.97 0 1 1-7.942 0v-3.968a3.97 3.97 0 0 1 3.972-3.969zm0 0" fill="#689f38" fill-opacity=".996" stroke-width="1.50015" stroke-linecap="square" stroke-linejoin="bevel" stroke="#333"/></svg>
